X: 16121
T: Green Grass, The
R: reel
M: 4/4
K: Amajor
|:ABce a3e|fece a3a|ABce a3e|fecB cB (3BAB|
ABce [ac]3e|fece [ac]3e|agae faec|dcBd cA A2:|
|:ABce fc (3cBc|aeeg ccfc|ABce fece|dcBA BAFE|
ABce fc (3cBc|aeeg ccfc|agfe fece|dcBd cA A2:|

